X:1
T:Title
%%score ( 1 2 ) 3
L:1/8
Q:1/4=90
M:6/8
K:Bb
V:1 treble nm="Grand Piano, Soprano"
V:2 treble 
V:3 bass nm="Choir Pad, Bass"
V:1
 [DF][DF][DF] [EG][DF][CE] | [B,D][DF][DB] [Fd]2 [FB] | [GB][^FA][GB] [Ac][GB][EG] | %3
w: By~Charles~Hutchinson~Gabriel * * * * *|||
 [EG][DF][B,D] [A,C]3 | [DF][DF][DF] [EG][DF][CE] | [B,D][DF][DB] [Fd]2 [FB] | %6
w: |||
 [Ec][Ec][Ec] [DB][DB][EA] | [DB]6 | [Fd]2 [EB] [Fd]3 | cB[EG] [DF]3 | [DB]2 [DB] [=EB][EA][EB] | %11
w: |||||
 [Fc]2 [Fd] [Fc]3 | [Fd]2 [Fd] [Fd][Fc][FB] | [GB][^FA][GB] cB[EG] | [DF][DF][DF] [EF][EG][EA] | %15
w: ||||
 [DB]6- | [DB]3 z3 |] %17
w: ||
V:2
 x6 | x6 | x6 | x6 | x6 | x6 | x6 | x6 | x6 | .E3 z3 | x6 | x6 | x6 | z3 .G3 | x6 | x6 | x6 |] %17
V:3
 [B,,B,][B,,B,][B,,B,] [B,,B,][B,,B,][B,,F,] | [B,,F,][B,,B,][B,,F,] [B,,B,]2 [D,B,] | %2
 [E,B,]2 [E,B,] [E,B,][E,B,][E,B,] | [B,,B,]2 [D,F,] F,3 | %4
 [B,,B,][B,,B,][B,,B,] [B,,B,][B,,B,][B,,F,] | [B,,F,][B,,B,][B,,F,] [B,,B,]2 [D,B,] | %6
 [E,G,][E,G,][E,G,] F,F,[F,,F,] | [B,,F,]6 | [B,,B,]2 [B,,F,] [B,,B,][B,,B,][B,,B,] | %9
 [E,G,][E,G,][E,B,] [B,,B,]2 [B,,B,] | [G,B,]2 [G,B,] [C,C][C,C][C,B,] | [F,A,]2 [F,B,] [F,A,]3 | %12
 [B,,B,]2 [B,,B,] [B,,B,][C,A,][D,B,] | [E,B,][E,B,][E,B,] [E,E]2 [E,B,] | %14
 [F,B,][F,B,][F,B,] [F,,F,][F,,F,][F,,F,] | [B,,F,]6- | [B,,F,]3 z3 |] %17

